X:1
T:Title
%%score { ( 1 4 ) | ( 2 3 ) }
L:1/8
M:3/4
K:Ab
V:1 treble nm="Grand Piano"
V:4 treble 
V:2 bass 
V:3 bass 
V:1
 z2 z2[Q:1/4=100] [A,CE]2 | [CEA]3 [CEA] [EA][EGB] | [EAc]4 [CEA]2 | [EGB][EGB] [EAc]2 [DGB]2 | %4
[M:2/4] [CA]4 |[M:1/4] c2 |[M:3/4] e3 d cA | [GB]4 [GB]2 | [GB]3 [GB] [FA][GB] |[M:3/8] [EAc]3 | %10
 z3 |[M:3/4] z2 z [GB] [GB][GB] | [GB]3 G AG | z2 z c z c |[M:3/8] e3 | efe |[M:3/4] c6- | c4 z2 | %18
 [DB]2 z2 z2 |[M:2/4] [CEA]4 |] %20
V:2
 z2 z2 A,,2 | A,,3 A,, C,E, | A,4 A,2 | E,E, E,2 E,2 |[M:2/4] A,,4 |[M:1/4][K:treble] [A,EA]2 | %6
[M:3/4] [A,CA]3 [A,FA] [A,EA][A,C] | [E,E]4 [E,E]2 | [E,E]3 [E,E] [E,E][E,E] |[M:3/8] A,3 | ECA, | %11
[M:3/4] E6- | E4 z2 | z2 z E CE |[M:3/8] [CA]3 | cdc |[M:3/4] A6- | A4[K:bass] z2 | z2 C2 E,2 | %19
[M:2/4] A,,4 |] %20
V:3
 x6 | x6 | x6 | x6 |[M:2/4] x4 |[M:1/4][K:treble] x2 |[M:3/4] x6 | x6 | x6 |[M:3/8] x3 | x3 | %11
[M:3/4] z2 z E, E,E, | E,3 E, C,E, | A,6- |[M:3/8] A,3 | x3 |[M:3/4] z2 z A, A,A, | %17
 A,4[K:bass] A,,2 | E,4 z2 |[M:2/4] x4 |] %20
V:4
 x6 | x6 | x6 | x6 |[M:2/4] x4 |[M:1/4] x2 |[M:3/4] x6 | x6 | x6 |[M:3/8] x3 | x3 |[M:3/4] x6 | %12
 x6 | A4 A2 |[M:3/8] x3 | x3 |[M:3/4] z2 z E EE | E4 [CEA]2 | E2- [EA]2 [B,EG]2 |[M:2/4] x4 |] %20

